X: 1
T: JC's Hambo
C: John Chambers (197?)
M: 3/4
L: 1/8
K: D
|: "D"D2 D>E F>G | A2 {B}A>G F>G | A>"(#)"G A>B c>d | "A7"~d>c c3 d | e2 e>d c>d |
| e>f e>d c>B |1,3 A>B c>B A>"(#)"G | A>B A>G F>E :|2,4 "A7"A>B c>A (3ABc | "D"d2 d4 :|
|: "D"D2 D<F A>d | f2 f>e d>e | f>g f>e d>c | "G"~c>B [B6G6] c/d/ | "A7"e2 e>d c>d |
| e>f e>d c>B |1,3 A>B c>B A>"(#)"G | A>B A>G F>E :|2,4 "A7"A>B c>A (3ABc | "D"d2 d4 :|

%%sep 1 1 500

